svg/fluentui-system-icons/ic_fluent_blur_24_filled.svg

<svg width="24" height="24" viewBox="0 0 24 24" fill="none" xmlns="http://www.w3.org/2000/svg">
<path d="M3 12C3 7.02944 7.02944 3 12 3C13.8401 3 15.5512 3.55223 16.9767 4.5H12V5.5H18.225C18.6969 5.95205 19.1196 6.45499 19.4845 7H12V8H20.0645C20.3018 8.47748 20.4979 8.97903 20.6482 9.5H12V10.5H20.8756C20.9574 10.9878 21 11.4889 21 12H12V13H20.9451C20.8882 13.5143 20.788 14.0155 20.6482 14.5H12V15.5H20.2941C20.0712 16.0276 19.7994 16.5295 19.4845 17H12V18H18.7083C17.0604 19.8412 14.6655 21 12 21C7.02944 21 3 16.9706 3 12Z" fill="#212121"/>
</svg>

<svg xmlns="http://www.w3.org/2000/svg" width="24" height="24"><path d="M3 12a9 9 0 0 1 13.977-7.5H12v1h6.225a9.05 9.05 0 0 1 1.26 1.5H12v1h8.064c.238.477.434.979.584 1.5H12v1h8.876c.081.488.124.989.124 1.5h-9v1h8.945a8.963 8.963 0 0 1-.297 1.5H12v1h8.294a8.98 8.98 0 0 1-.81 1.5H12v1h6.708A9 9 0 0 1 3 12Z"/></svg>
